app/assets/images/laser_cutter.svg

<?xml version="1.0" encoding="UTF-8" standalone="no"?>
<svg
   xmlns:sketch="http://www.bohemiancoding.com/sketch/ns"
   xmlns:dc="http://purl.org/dc/elements/1.1/"
   xmlns:cc="http://creativecommons.org/ns#"
   xmlns:rdf="http://www.w3.org/1999/02/22-rdf-syntax-ns#"
   xmlns:svg="http://www.w3.org/2000/svg"
   xmlns="http://www.w3.org/2000/svg"
   xmlns:sodipodi="http://sodipodi.sourceforge.net/DTD/sodipodi-0.dtd"
   xmlns:inkscape="http://www.inkscape.org/namespaces/inkscape"
   width="90px"
   height="90px"
   viewBox="0 0 90 90"
   version="1.1"
   id="svg3590"
   inkscape:version="0.48.4 r9939"
   sodipodi:docname="laser_cutter.svg">
  <metadata
     id="metadata3638">
    <rdf:RDF>
      <cc:Work
         rdf:about="">
        <dc:format>image/svg+xml</dc:format>
        <dc:type
           rdf:resource="http://purl.org/dc/dcmitype/StillImage" />
      </cc:Work>
    </rdf:RDF>
  </metadata>
  <sodipodi:namedview
     pagecolor="#ffffff"
     bordercolor="#666666"
     borderopacity="1"
     objecttolerance="10"
     gridtolerance="10"
     guidetolerance="10"
     inkscape:pageopacity="0"
     inkscape:pageshadow="2"
     inkscape:window-width="640"
     inkscape:window-height="480"
     id="namedview3636"
     showgrid="false"
     inkscape:zoom="2.6222222"
     inkscape:cx="45"
     inkscape:cy="45"
     inkscape:window-x="65"
     inkscape:window-y="24"
     inkscape:window-maximized="0"
     inkscape:current-layer="svg3590" />
  <!-- Generator: Sketch 3.1 (8751) - http://www.bohemiancoding.com/sketch -->
  <title
     id="title3592">Oval 1 + laser_cut</title>
  <desc
     id="desc3594">Created with Sketch.</desc>
  <defs
     id="defs3596" />
  <circle
     id="Oval-1"
     sketch:type="MSShapeGroup"
     cx="45"
     cy="45"
     r="45"
     sodipodi:cx="45"
     sodipodi:cy="45"
     sodipodi:rx="45"
     sodipodi:ry="45"
     style="fill:#4d4d4d;stroke:none"
     transform="matrix(0.94915254,0,0,0.94915254,2.2881356,2.2881356)" />
  <g
     style="fill:none;stroke:none"
     id="laser_cut"
     transform="matrix(0.93293249,0,0,0.93293249,10.527582,7.5102867)">
    <g
       id="Captions" />
    <g
       id="Your_Icon"
       transform="translate(1.5,9)"
       sketch:type="MSShapeGroup">
      <g
         id="Group">
        <g
           transform="translate(16.5,0)"
           id="Shape"
           style="fill:#ffffff">
          <path
             d="m 31.8405,35.1405 c 0.018,-0.24 0.03675,-0.48 0.0555,-0.71925 l -12.18,0 c 0,-0.14625 0,-0.29325 -0.0015,-0.44025 2.58,-1.0065 5.15925,-2.0145 7.74,-3.021 -0.081,-0.22125 -0.1635,-0.4425 -0.24525,-0.663 -2.838,1.044 -5.676,2.088 -8.51475,3.13125 2.808,-3.405 6.02925,-6.25575 8.8665,-9.456 -0.19425,-0.19275 -0.39,-0.3855 -0.5835,-0.57825 -2.91675,2.91675 -5.832,5.8335 -8.7495,8.75025 0.33675,-1.51125 0.97275,-2.838 1.48275,-4.2135 0.4965,-1.34625 1.578,-2.5485 1.38825,-4.08825 -0.15525,-0.05925 -0.30825,-0.11775 -0.4635,-0.17625 -1.161,2.58225 -2.32275,5.1645 -3.4845,7.74675 -0.32625,-1.0875 -0.327,-2.11125 -0.3255,-3.13575 0.0075,-8.844 0.01875,-17.688 0.01275,-26.532 0,-0.58125 -0.13725,-1.1625 -0.21,-1.743 -0.21,0.0255 -0.42,0.05025 -0.62925,0.07575 l 0,31.89675 c -0.12225,0.02175 -0.243,0.042 -0.3645,0.063 -1.089,-2.7915 -2.17725,-5.58225 -3.26625,-8.37375 -0.21825,0.084 -0.4365,0.168 -0.654,0.252 1.0665,2.91675 2.133,5.83275 3.19875,8.7495 -0.08625,0.04425 -0.17325,0.08775 -0.2595,0.13275 -3.10875,-3.09 -6.2175,-6.18075 -9.3255,-9.27 -0.16275,0.165 -0.3255,0.3315 -0.48825,0.49725 2.82825,2.89575 5.65575,5.7915 8.484,8.6865 -0.048,0.078 -0.09525,0.1575 -0.14325,0.2355 -2.5875,-1.10775 -5.17575,-2.2155 -7.76325,-3.32175 -0.10425,0.22125 -0.20775,0.444 -0.312,0.666 2.7,1.2285 5.39925,2.45625 8.09775,3.6855 -0.04275,0.1305 -0.0855,0.26025 -0.12825,0.39075 -1.48575,0 -2.9715,0 -4.45725,7.5e-4 -1.449,0 -2.898,-0.0022 -4.347,7.5e-4 -3.56325,0.0097 -3.56325,0.01125 -4.38675,0.8115 l 13.23375,0 c -2.45775,1.64625 -5.358,2.1105 -7.764,3.60975 0.0705,0.17325 0.141,0.348 0.2115,0.5205 2.71125,-1.00725 5.4225,-2.013 8.1345,-3.02025 -0.45225,0.80775 -1.0155,1.4235 -1.60275,2.01375 -2.22,2.229 -4.45875,4.43925 -6.66225,6.684 C 5.121,45.309 4.965,45.7845 4.73625,46.188 c 0.22425,0.159 0.44925,0.31575 0.6735,0.47475 2.86725,-2.997 5.73375,-5.994 8.60025,-8.991 0.1095,0.07425 0.219,0.147 0.32775,0.2205 -1.0905,2.57475 -2.181,5.14875 -3.2715,7.7235 0.25125,0.1065 0.504,0.21225 0.75525,0.31875 1.26075,-2.8365 2.5215,-5.673 3.78225,-8.51175 0.1365,0.0225 0.2715,0.04725 0.4065,0.0705 l 0,13.419 c 0.25425,0.0082 0.5085,0.0165 0.76275,0.02475 0.14925,-4.05225 -0.0038,-8.12475 0.4125,-12.2205 0.948,2.42325 1.89525,4.84575 2.84325,7.269 0.22575,-0.087 0.4515,-0.174 0.6765,-0.2625 -1.0005,-2.727 -2.00175,-5.454 -3.003,-8.181 3.37875,2.74125 6.144,6.0015 9.34125,8.7855 0.15525,-0.159 0.309,-0.31875 0.4635,-0.47775 -3.045,-3.1005 -6.09,-6.20025 -9.13425,-9.29925 3.039,0.81075 5.664,2.42325 8.57175,3.2565 0.081,-0.19575 0.16275,-0.39 0.2445,-0.58425 -2.736,-1.2315 -5.47125,-2.4615 -8.20725,-3.69375 0.0345,-0.12825 0.06825,-0.25725 0.10275,-0.38475 4.251,-0.0037 8.50275,-0.0037 12.756,-0.0037 l 0,0 z"
             id="path3606"
             inkscape:connector-curvature="0" />
          <path
             d="m 31.8405,35.1405 -12.759,0 c -0.0345,0.1275 -0.06825,0.2565 -0.10275,0.38475 2.736,1.23225 5.47125,2.46225 8.20725,3.69375 -0.08175,0.195 -0.1635,0.38925 -0.2445,0.58425 -2.90775,-0.8325 -5.53275,-2.44575 -8.57175,-3.2565 3.04425,3.09975 6.09,6.1995 9.13425,9.29925 -0.1545,0.159 -0.30825,0.31875 -0.4635,0.47775 -3.19725,-2.784 -5.96175,-6.04425 -9.34125,-8.7855 1.00125,2.727 2.0025,5.454 3.003,8.181 -0.22575,0.08775 -0.4515,0.17475 -0.6765,0.2625 C 19.07775,43.5585 18.1305,41.136 17.1825,38.71275 16.76625,42.8085 16.91925,46.881 16.77,50.93325 16.51575,50.925 16.2615,50.91675 16.00725,50.9085 l 0,-13.419 c -0.135,-0.0225 -0.27075,-0.04725 -0.4065,-0.0705 -1.26075,2.838 -2.5215,5.6745 -3.78225,8.51175 -0.25125,-0.1065 -0.504,-0.21225 -0.75525,-0.31875 1.0905,-2.57475 2.181,-5.14875 3.2715,-7.7235 C 14.22525,37.815 14.1165,37.74225 14.007,37.668 11.1405,40.665 8.274,43.662 5.40675,46.659 5.1825,46.5 4.9575,46.34325 4.73325,46.18425 4.962,45.78075 5.11725,45.30525 5.4315,44.985 7.635,42.74025 9.87375,40.53 12.09375,38.301 12.68175,37.7115 13.245,37.09575 13.6965,36.28725 10.98525,37.29525 8.274,38.301 5.562,39.3075 5.4915,39.135 5.421,38.96025 5.3505,38.787 c 2.406,-1.4985 5.30625,-1.96275 7.764,-3.60975 l -13.23375,0 C 0.7035,34.377 0.7035,34.3755 4.2675,34.36575 c 1.449,-0.003 2.898,-7.5e-4 4.347,-7.5e-4 1.48575,-7.5e-4 2.9715,-7.5e-4 4.45725,-7.5e-4 C 13.1145,34.23375 13.15725,34.104 13.2,33.9735 10.5015,32.74425 7.80225,31.5165 5.10225,30.288 c 0.1035,-0.222 0.20775,-0.44475 0.312,-0.666 2.5875,1.10625 5.17575,2.214 7.76325,3.32175 0.048,-0.078 0.09525,-0.1575 0.14325,-0.2355 C 10.4925,29.81325 7.665,26.9175 4.83675,24.02175 4.9995,23.856 5.163,23.6895 5.325,23.5245 c 3.10875,3.09 6.2175,6.18 9.3255,9.27 0.08625,-0.045 0.17325,-0.0885 0.2595,-0.13275 -1.06575,-2.91675 -2.13225,-5.83275 -3.19875,-8.7495 0.2175,-0.084 0.4365,-0.168 0.654,-0.252 1.089,2.7915 2.178,5.58225 3.26625,8.37375 0.1215,-0.021 0.243,-0.04125 0.3645,-0.063 l 0,-31.89675 c 0.20925,-0.0255 0.41925,-0.05025 0.62925,-0.07575 0.07275,0.5805 0.21,1.16175 0.21,1.743 0.0068,8.844 -0.0053,17.688 -0.01275,26.532 -7.5e-4,1.0245 0,2.04825 0.3255,3.13575 1.16175,-2.58225 2.3235,-5.1645 3.4845,-7.74675 0.15525,0.0585 0.30825,0.11775 0.4635,0.17625 0.18975,1.53975 -0.891,2.742 -1.38825,4.08825 -0.51,1.3755 -1.146,2.703 -1.48275,4.2135 2.91675,-2.91675 5.83275,-5.83275 8.7495,-8.75025 0.19425,0.19275 0.39,0.3855 0.5835,0.57825 -2.83725,3.20025 -6.0585,6.051 -8.8665,9.456 2.838,-1.04325 5.676,-2.08725 8.51475,-3.13125 0.08175,0.2205 0.16425,0.44175 0.24525,0.663 -2.58075,1.00725 -5.16,2.01525 -7.74,3.021 0.0015,0.147 0.0015,0.294 0.0015,0.44025 l 12.18,0 c -0.01575,0.243 -0.03375,0.48225 -0.0525,0.723 l 0,0 z"
             id="path3608"
             inkscape:connector-curvature="0" />
        </g>
        <path
           d="m 53.358,25.43625 c 6.339,3.50325 12.67725,7.0065 19.01625,10.5105"
           id="path3610"
           inkscape:connector-curvature="0"
           style="stroke:#ffffff;stroke-width:0.5" />
        <path
           d="M 40.18275,18.15525 C 44.2605,20.38575 48.1185,23.025 52.3695,24.93"
           id="path3612"
           inkscape:connector-curvature="0"
           style="stroke:#ffffff;stroke-width:0.5" />
        <path
           d="M 40.18275,18.15525 0,38.145"
           id="path3614"
           inkscape:connector-curvature="0"
           style="stroke:#ffffff;stroke-width:0.5" />
        <path
           d="M 72.37425,35.94675 32.38875,55.539"
           id="path3616"
           inkscape:connector-curvature="0"
           style="stroke:#ffffff;stroke-width:0.5" />
        <path
           d="M 32.38875,55.539 0,38.145"
           id="path3618"
           inkscape:connector-curvature="0"
           style="stroke:#ffffff;stroke-width:0.5" />
        <path
           d="m 52.3815,24.89625 -19.99275,10.05"
           id="path3620"
           inkscape:connector-curvature="0"
           style="stroke:#ffffff;stroke-width:0.5" />
        <path
           d="M 53.412,25.46625 32.38875,35.5965"
           id="path3622"
           inkscape:connector-curvature="0"
           style="stroke:#ffffff;stroke-width:0.5" />
        <path
           d="m 52.3815,24.89625 0,1.0665"
           id="path3624"
           inkscape:connector-curvature="0"
           style="stroke:#ffffff;stroke-width:0.5" />
        <path
           d="m 0,38.145 0,0.9225"
           id="path3626"
           inkscape:connector-curvature="0"
           style="stroke:#ffffff;stroke-width:0.5" />
        <path
           d="M 0,39.0675 32.38875,56.61"
           id="path3628"
           inkscape:connector-curvature="0"
           style="stroke:#ffffff;stroke-width:0.5" />
        <path
           d="m 32.38875,56.61 0,-1.071"
           id="path3630"
           inkscape:connector-curvature="0"
           style="stroke:#ffffff;stroke-width:0.5" />
        <path
           d="M 32.38875,56.61 72.37425,36.96825"
           id="path3632"
           inkscape:connector-curvature="0"
           style="stroke:#ffffff;stroke-width:0.5" />
        <path
           d="m 72.37425,36.96825 0,-1.0215"
           id="path3634"
           inkscape:connector-curvature="0"
           style="stroke:#ffffff;stroke-width:0.5" />
      </g>
    </g>
  </g>
</svg>

<?xml version="1.0" encoding="UTF-8" standalone="no"?>
<svg width="90px" height="90px" viewBox="0 0 90 90" version="1.1" xmlns="http://www.w3.org/2000/svg" xmlns:xlink="http://www.w3.org/1999/xlink" xmlns:sketch="http://www.bohemiancoding.com/sketch/ns">
    <!-- Generator: Sketch 3.1 (8751) - http://www.bohemiancoding.com/sketch -->
    <title>Oval 1 + laser_cut</title>
    <desc>Created with Sketch.</desc>
    <defs></defs>
    <g id="Page-1" stroke="none" stroke-width="1" fill="none" fill-rule="evenodd" sketch:type="MSPage">
        <g id="Oval-1-+-laser_cut" sketch:type="MSLayerGroup">
            <circle id="Oval-1" fill="#000000" sketch:type="MSShapeGroup" cx="45" cy="45" r="45"></circle>
            <g id="laser_cut" transform="translate(10.000000, 5.000000)">
                <g id="Captions"></g>
                <g id="Your_Icon" transform="translate(1.500000, 9.000000)" sketch:type="MSShapeGroup">
                    <g id="Group">
                        <g transform="translate(16.500000, 0.000000)" id="Shape" fill="#FFFFFF">
                            <path d="M31.8405,35.1405 C31.8585,34.9005 31.87725,34.6605 31.896,34.42125 L19.716,34.42125 C19.716,34.275 19.716,34.128 19.7145,33.981 C22.2945,32.9745 24.87375,31.9665 27.4545,30.96 C27.3735,30.73875 27.291,30.5175 27.20925,30.297 C24.37125,31.341 21.53325,32.385 18.6945,33.42825 C21.5025,30.02325 24.72375,27.1725 27.561,23.97225 C27.36675,23.7795 27.171,23.58675 26.9775,23.394 C24.06075,26.31075 21.1455,29.2275 18.228,32.14425 C18.56475,30.633 19.20075,29.30625 19.71075,27.93075 C20.20725,26.5845 21.28875,25.38225 21.099,23.8425 C20.94375,23.78325 20.79075,23.72475 20.6355,23.66625 C19.4745,26.2485 18.31275,28.83075 17.151,31.413 C16.82475,30.3255 16.824,29.30175 16.8255,28.27725 C16.833,19.43325 16.84425,10.58925 16.83825,1.74525 C16.83825,1.164 16.701,0.58275 16.62825,0.00225 C16.41825,0.02775 16.20825,0.0525 15.999,0.078 L15.999,31.97475 C15.87675,31.9965 15.756,32.01675 15.6345,32.03775 C14.5455,29.24625 13.45725,26.4555 12.36825,23.664 C12.15,23.748 11.93175,23.832 11.71425,23.916 C12.78075,26.83275 13.84725,29.74875 14.913,32.6655 C14.82675,32.70975 14.73975,32.75325 14.6535,32.79825 C11.54475,29.70825 8.436,26.6175 5.328,23.52825 C5.16525,23.69325 5.0025,23.85975 4.83975,24.0255 C7.668,26.92125 10.4955,29.817 13.32375,32.712 C13.27575,32.79 13.2285,32.8695 13.1805,32.9475 C10.593,31.83975 8.00475,30.732 5.41725,29.62575 C5.313,29.847 5.2095,30.06975 5.10525,30.29175 C7.80525,31.52025 10.5045,32.748 13.203,33.97725 C13.16025,34.10775 13.1175,34.2375 13.07475,34.368 C11.589,34.368 10.10325,34.368 8.6175,34.36875 C7.1685,34.36875 5.7195,34.3665 4.2705,34.3695 C0.70725,34.37925 0.70725,34.38075 -0.11625,35.181 L13.1175,35.181 C10.65975,36.82725 7.7595,37.2915 5.3535,38.79075 C5.424,38.964 5.4945,39.13875 5.565,39.31125 C8.27625,38.304 10.9875,37.29825 13.6995,36.291 C13.24725,37.09875 12.684,37.7145 12.09675,38.30475 C9.87675,40.53375 7.638,42.744 5.4345,44.98875 C5.121,45.309 4.965,45.7845 4.73625,46.188 C4.9605,46.347 5.1855,46.50375 5.40975,46.66275 C8.277,43.66575 11.1435,40.66875 14.01,37.67175 C14.1195,37.746 14.229,37.81875 14.33775,37.89225 C13.24725,40.467 12.15675,43.041 11.06625,45.61575 C11.3175,45.72225 11.57025,45.828 11.8215,45.9345 C13.08225,43.098 14.343,40.2615 15.60375,37.42275 C15.74025,37.44525 15.87525,37.47 16.01025,37.49325 L16.01025,50.91225 C16.2645,50.9205 16.51875,50.92875 16.773,50.937 C16.92225,46.88475 16.76925,42.81225 17.1855,38.7165 C18.1335,41.13975 19.08075,43.56225 20.02875,45.9855 C20.2545,45.8985 20.48025,45.8115 20.70525,45.723 C19.70475,42.996 18.7035,40.269 17.70225,37.542 C21.081,40.28325 23.84625,43.5435 27.0435,46.3275 C27.19875,46.1685 27.3525,46.00875 27.507,45.84975 C24.462,42.74925 21.417,39.6495 18.37275,36.5505 C21.41175,37.36125 24.03675,38.97375 26.9445,39.807 C27.0255,39.61125 27.10725,39.417 27.189,39.22275 C24.453,37.99125 21.71775,36.76125 18.98175,35.529 C19.01625,35.40075 19.05,35.27175 19.0845,35.14425 C23.3355,35.1405 27.58725,35.1405 31.8405,35.1405 L31.8405,35.1405 Z"></path>
                            <path d="M31.8405,35.1405 L19.0815,35.1405 C19.047,35.268 19.01325,35.397 18.97875,35.52525 C21.71475,36.7575 24.45,37.9875 27.186,39.219 C27.10425,39.414 27.0225,39.60825 26.9415,39.80325 C24.03375,38.97075 21.40875,37.3575 18.36975,36.54675 C21.414,39.6465 24.45975,42.74625 27.504,45.846 C27.3495,46.005 27.19575,46.16475 27.0405,46.32375 C23.84325,43.53975 21.07875,40.2795 17.69925,37.53825 C18.7005,40.26525 19.70175,42.99225 20.70225,45.71925 C20.4765,45.807 20.25075,45.894 20.02575,45.98175 C19.07775,43.5585 18.1305,41.136 17.1825,38.71275 C16.76625,42.8085 16.91925,46.881 16.77,50.93325 C16.51575,50.925 16.2615,50.91675 16.00725,50.9085 L16.00725,37.4895 C15.87225,37.467 15.7365,37.44225 15.60075,37.419 C14.34,40.257 13.07925,43.0935 11.8185,45.93075 C11.56725,45.82425 11.3145,45.7185 11.06325,45.612 C12.15375,43.03725 13.24425,40.46325 14.33475,37.8885 C14.22525,37.815 14.1165,37.74225 14.007,37.668 C11.1405,40.665 8.274,43.662 5.40675,46.659 C5.1825,46.5 4.9575,46.34325 4.73325,46.18425 C4.962,45.78075 5.11725,45.30525 5.4315,44.985 C7.635,42.74025 9.87375,40.53 12.09375,38.301 C12.68175,37.7115 13.245,37.09575 13.6965,36.28725 C10.98525,37.29525 8.274,38.301 5.562,39.3075 C5.4915,39.135 5.421,38.96025 5.3505,38.787 C7.7565,37.2885 10.65675,36.82425 13.1145,35.17725 L-0.11925,35.17725 C0.7035,34.377 0.7035,34.3755 4.2675,34.36575 C5.7165,34.36275 7.1655,34.365 8.6145,34.365 C10.10025,34.36425 11.586,34.36425 13.07175,34.36425 C13.1145,34.23375 13.15725,34.104 13.2,33.9735 C10.5015,32.74425 7.80225,31.5165 5.10225,30.288 C5.20575,30.066 5.31,29.84325 5.41425,29.622 C8.00175,30.72825 10.59,31.836 13.1775,32.94375 C13.2255,32.86575 13.27275,32.78625 13.32075,32.70825 C10.4925,29.81325 7.665,26.9175 4.83675,24.02175 C4.9995,23.856 5.163,23.6895 5.325,23.5245 C8.43375,26.6145 11.5425,29.7045 14.6505,32.7945 C14.73675,32.7495 14.82375,32.706 14.91,32.66175 C13.84425,29.745 12.77775,26.829 11.71125,23.91225 C11.92875,23.82825 12.14775,23.74425 12.36525,23.66025 C13.45425,26.45175 14.54325,29.2425 15.6315,32.034 C15.753,32.013 15.8745,31.99275 15.996,31.971 L15.996,0.07425 C16.20525,0.04875 16.41525,0.024 16.62525,-0.0015 C16.698,0.579 16.83525,1.16025 16.83525,1.7415 C16.842,10.5855 16.83,19.4295 16.8225,28.2735 C16.82175,29.298 16.8225,30.32175 17.148,31.40925 C18.30975,28.827 19.4715,26.24475 20.6325,23.6625 C20.78775,23.721 20.94075,23.78025 21.096,23.83875 C21.28575,25.3785 20.205,26.58075 19.70775,27.927 C19.19775,29.3025 18.56175,30.63 18.225,32.1405 C21.14175,29.22375 24.05775,26.30775 26.9745,23.39025 C27.16875,23.583 27.3645,23.77575 27.558,23.9685 C24.72075,27.16875 21.4995,30.0195 18.6915,33.4245 C21.5295,32.38125 24.3675,31.33725 27.20625,30.29325 C27.288,30.51375 27.3705,30.735 27.4515,30.95625 C24.87075,31.9635 22.2915,32.9715 19.7115,33.97725 C19.713,34.12425 19.713,34.27125 19.713,34.4175 L31.893,34.4175 C31.87725,34.6605 31.85925,34.89975 31.8405,35.1405 L31.8405,35.1405 Z"></path>
                        </g>
                        <path d="M53.358,25.43625 C59.697,28.9395 66.03525,32.44275 72.37425,35.94675" id="Shape" stroke="#FFFFFF" stroke-width="0.5"></path>
                        <path d="M40.18275,18.15525 C44.2605,20.38575 48.1185,23.025 52.3695,24.93" id="Shape" stroke="#FFFFFF" stroke-width="0.5"></path>
                        <path d="M40.18275,18.15525 L0,38.145" id="Shape" stroke="#FFFFFF" stroke-width="0.5"></path>
                        <path d="M72.37425,35.94675 L32.38875,55.539" id="Shape" stroke="#FFFFFF" stroke-width="0.5"></path>
                        <path d="M32.38875,55.539 L0,38.145" id="Shape" stroke="#FFFFFF" stroke-width="0.5"></path>
                        <path d="M52.3815,24.89625 L32.38875,34.94625" id="Shape" stroke="#FFFFFF" stroke-width="0.5"></path>
                        <path d="M53.412,25.46625 L32.38875,35.5965" id="Shape" stroke="#FFFFFF" stroke-width="0.5"></path>
                        <path d="M52.3815,24.89625 L52.3815,25.96275" id="Shape" stroke="#FFFFFF" stroke-width="0.5"></path>
                        <path d="M0,38.145 L0,39.0675" id="Shape" stroke="#FFFFFF" stroke-width="0.5"></path>
                        <path d="M0,39.0675 L32.38875,56.61" id="Shape" stroke="#FFFFFF" stroke-width="0.5"></path>
                        <path d="M32.38875,56.61 L32.38875,55.539" id="Shape" stroke="#FFFFFF" stroke-width="0.5"></path>
                        <path d="M32.38875,56.61 L72.37425,36.96825" id="Shape" stroke="#FFFFFF" stroke-width="0.5"></path>
                        <path d="M72.37425,36.96825 L72.37425,35.94675" id="Shape" stroke="#FFFFFF" stroke-width="0.5"></path>
                    </g>
                </g>
            </g>
        </g>
    </g>
</svg>
